( pcb2gcode 2.0.0 )
( Software-independent Gcode )

G94 ( Millimeters per minute feed rate. )
G21 ( Units == Millimeters. )

G90 ( Absolute coordinates. )
G00 S6000 ( RPM spindle speed. )
G64 P0.01016 ( set maximum deviation from commanded toolpath )
G01 F400.00000 ( Feedrate. )


G00 Z30.00000 (Retract to tool change height)
T0
M5      (Spindle stop.)
G04 P12.00000 (Wait for spindle to stop)
(MSG, Change tool bit to cutter diameter 1.05000mm)
M6      (Tool change.)
M0      (Temporary machine stop.)
M3 ( Spindle on clockwise. )
G04 P12.00000 (Wait for spindle to get up to speed)
G04 P0 ( dwell for no time -- G64 should not smooth over this point )
G00 Z4.00000 ( retract )

G00 X15.05499 Y-10.92500 ( rapid move to begin. )
G01 Z-0.90000 F200.00000 ( plunge. )
G04 P0 ( dwell for no time -- G64 should not smooth over this point )
G01 F400.00000
G01 X15.05499 Y14.07498
G01 X15.09494 Y14.27589
G01 X15.20876 Y14.44622
G01 X15.37909 Y14.56002
G01 X15.57998 Y14.60000
G01 X43.34500 Y14.60000
G01 X43.54589 Y14.56002
G01 X43.71622 Y14.44622
G01 X43.83001 Y14.27589
G01 X43.86999 Y14.07498
G01 X43.86999 Y-10.92500
G01 X43.83001 Y-11.12589
G01 X43.71622 Y-11.29622
G01 X43.54589 Y-11.41004
G01 X43.34500 Y-11.44999
G01 X15.57998 Y-11.44999
G01 X15.37909 Y-11.41004
G01 X15.20876 Y-11.29622
G01 X15.09494 Y-11.12589
G01 X15.05499 Y-10.92500
G01 Z-1.80000 F200.00000 ( plunge. )
G04 P0 ( dwell for no time -- G64 should not smooth over this point )
G01 F400.00000
G01 X15.05499 Y14.07498
G01 X15.09494 Y14.27589
G01 X15.20876 Y14.44622
G01 X15.37909 Y14.56002
G01 X15.57998 Y14.60000
G01 X43.34500 Y14.60000
G01 X43.54589 Y14.56002
G01 X43.71622 Y14.44622
G01 X43.83001 Y14.27589
G01 X43.86999 Y14.07498
G01 X43.86999 Y-10.92500
G01 X43.83001 Y-11.12589
G01 X43.71622 Y-11.29622
G01 X43.54589 Y-11.41004
G01 X43.34500 Y-11.44999
G01 X15.57998 Y-11.44999
G01 X15.37909 Y-11.41004
G01 X15.20876 Y-11.29622
G01 X15.09494 Y-11.12589
G01 X15.05499 Y-10.92500
G04 P0 ( dwell for no time -- G64 should not smooth over this point )
G00 Z4.00000 ( retract )

G00 X15.05499 Y18.07500 ( rapid move to begin. )
G01 Z-0.90000 F200.00000 ( plunge. )
G04 P0 ( dwell for no time -- G64 should not smooth over this point )
G01 F400.00000
G01 X15.05499 Y43.07500
G01 X15.09494 Y43.27588
G01 X15.20876 Y43.44622
G01 X15.37909 Y43.56003
G01 X15.57998 Y43.59999
G01 X43.34500 Y43.59999
G01 X43.54589 Y43.56003
G01 X43.71622 Y43.44622
G01 X43.83001 Y43.27588
G01 X43.86999 Y43.07500
G01 X43.86999 Y18.07500
G01 X43.83001 Y17.87408
G01 X43.71622 Y17.70375
G01 X43.54589 Y17.58996
G01 X43.34500 Y17.54998
G01 X15.57998 Y17.54998
G01 X15.37909 Y17.58996
G01 X15.20876 Y17.70375
G01 X15.09494 Y17.87408
G01 X15.05499 Y18.07500
G01 Z-1.80000 F200.00000 ( plunge. )
G04 P0 ( dwell for no time -- G64 should not smooth over this point )
G01 F400.00000
G01 X15.05499 Y43.07500
G01 X15.09494 Y43.27588
G01 X15.20876 Y43.44622
G01 X15.37909 Y43.56003
G01 X15.57998 Y43.59999
G01 X43.34500 Y43.59999
G01 X43.54589 Y43.56003
G01 X43.71622 Y43.44622
G01 X43.83001 Y43.27588
G01 X43.86999 Y43.07500
G01 X43.86999 Y18.07500
G01 X43.83001 Y17.87408
G01 X43.71622 Y17.70375
G01 X43.54589 Y17.58996
G01 X43.34500 Y17.54998
G01 X15.57998 Y17.54998
G01 X15.37909 Y17.58996
G01 X15.20876 Y17.70375
G01 X15.09494 Y17.87408
G01 X15.05499 Y18.07500
G04 P0 ( dwell for no time -- G64 should not smooth over this point )
G00 Z4.00000 ( retract )

G00 X15.05499 Y47.07499 ( rapid move to begin. )
G01 Z-0.90000 F200.00000 ( plunge. )
G04 P0 ( dwell for no time -- G64 should not smooth over this point )
G01 F400.00000
G01 X15.05499 Y72.07499
G01 X15.09494 Y72.27590
G01 X15.20876 Y72.44621
G01 X15.37909 Y72.56003
G01 X15.57998 Y72.59998
G01 X43.34500 Y72.59998
G01 X43.54589 Y72.56003
G01 X43.71622 Y72.44621
G01 X43.83001 Y72.27590
G01 X43.86999 Y72.07499
G01 X43.86999 Y47.07499
G01 X43.83001 Y46.87407
G01 X43.71622 Y46.70377
G01 X43.54589 Y46.58995
G01 X43.34500 Y46.55000
G01 X15.57998 Y46.55000
G01 X15.37909 Y46.58995
G01 X15.20876 Y46.70377
G01 X15.09494 Y46.87407
G01 X15.05499 Y47.07499
G01 Z-1.80000 F200.00000 ( plunge. )
G04 P0 ( dwell for no time -- G64 should not smooth over this point )
G01 F400.00000
G01 X15.05499 Y72.07499
G01 X15.09494 Y72.27590
G01 X15.20876 Y72.44621
G01 X15.37909 Y72.56003
G01 X15.57998 Y72.59998
G01 X43.34500 Y72.59998
G01 X43.54589 Y72.56003
G01 X43.71622 Y72.44621
G01 X43.83001 Y72.27590
G01 X43.86999 Y72.07499
G01 X43.86999 Y47.07499
G01 X43.83001 Y46.87407
G01 X43.71622 Y46.70377
G01 X43.54589 Y46.58995
G01 X43.34500 Y46.55000
G01 X15.57998 Y46.55000
G01 X15.37909 Y46.58995
G01 X15.20876 Y46.70377
G01 X15.09494 Y46.87407
G01 X15.05499 Y47.07499
G04 P0 ( dwell for no time -- G64 should not smooth over this point )
G00 Z4.00000 ( retract )

G00 X-15.94498 Y47.07499 ( rapid move to begin. )
G01 Z-0.90000 F200.00000 ( plunge. )
G04 P0 ( dwell for no time -- G64 should not smooth over this point )
G01 F400.00000
G01 X-15.90502 Y46.87407
G01 X-15.79123 Y46.70377
G01 X-15.62090 Y46.58995
G01 X-15.41998 Y46.55000
G01 X12.34498 Y46.55000
G01 X12.54590 Y46.58995
G01 X12.71621 Y46.70377
G01 X12.83002 Y46.87407
G01 X12.86998 Y47.07499
G01 X12.86998 Y72.07499
G01 X12.83002 Y72.27590
G01 X12.71621 Y72.44621
G01 X12.54590 Y72.56003
G01 X12.34498 Y72.59998
G01 X-15.41998 Y72.59998
G01 X-15.62090 Y72.56003
G01 X-15.79123 Y72.44621
G01 X-15.90502 Y72.27590
G01 X-15.94498 Y72.07499
G01 X-15.94498 Y47.07499
G01 Z-1.80000 F200.00000 ( plunge. )
G04 P0 ( dwell for no time -- G64 should not smooth over this point )
G01 F400.00000
G01 X-15.90502 Y46.87407
G01 X-15.79123 Y46.70377
G01 X-15.62090 Y46.58995
G01 X-15.41998 Y46.55000
G01 X12.34498 Y46.55000
G01 X12.54590 Y46.58995
G01 X12.71621 Y46.70377
G01 X12.83002 Y46.87407
G01 X12.86998 Y47.07499
G01 X12.86998 Y72.07499
G01 X12.83002 Y72.27590
G01 X12.71621 Y72.44621
G01 X12.54590 Y72.56003
G01 X12.34498 Y72.59998
G01 X-15.41998 Y72.59998
G01 X-15.62090 Y72.56003
G01 X-15.79123 Y72.44621
G01 X-15.90502 Y72.27590
G01 X-15.94498 Y72.07499
G01 X-15.94498 Y47.07499
G04 P0 ( dwell for no time -- G64 should not smooth over this point )
G00 Z4.00000 ( retract )

G00 X-15.94498 Y18.07500 ( rapid move to begin. )
G01 Z-0.90000 F200.00000 ( plunge. )
G04 P0 ( dwell for no time -- G64 should not smooth over this point )
G01 F400.00000
G01 X-15.90502 Y17.87408
G01 X-15.79123 Y17.70375
G01 X-15.62090 Y17.58996
G01 X-15.41998 Y17.54998
G01 X12.34498 Y17.54998
G01 X12.54590 Y17.58996
G01 X12.71621 Y17.70375
G01 X12.83002 Y17.87408
G01 X12.86998 Y18.07500
G01 X12.86998 Y43.07500
G01 X12.83002 Y43.27588
G01 X12.71621 Y43.44622
G01 X12.54590 Y43.56003
G01 X12.34498 Y43.59999
G01 X-15.41998 Y43.59999
G01 X-15.62090 Y43.56003
G01 X-15.79123 Y43.44622
G01 X-15.90502 Y43.27588
G01 X-15.94498 Y43.07500
G01 X-15.94498 Y18.07500
G01 Z-1.80000 F200.00000 ( plunge. )
G04 P0 ( dwell for no time -- G64 should not smooth over this point )
G01 F400.00000
G01 X-15.90502 Y17.87408
G01 X-15.79123 Y17.70375
G01 X-15.62090 Y17.58996
G01 X-15.41998 Y17.54998
G01 X12.34498 Y17.54998
G01 X12.54590 Y17.58996
G01 X12.71621 Y17.70375
G01 X12.83002 Y17.87408
G01 X12.86998 Y18.07500
G01 X12.86998 Y43.07500
G01 X12.83002 Y43.27588
G01 X12.71621 Y43.44622
G01 X12.54590 Y43.56003
G01 X12.34498 Y43.59999
G01 X-15.41998 Y43.59999
G01 X-15.62090 Y43.56003
G01 X-15.79123 Y43.44622
G01 X-15.90502 Y43.27588
G01 X-15.94498 Y43.07500
G01 X-15.94498 Y18.07500
G04 P0 ( dwell for no time -- G64 should not smooth over this point )
G00 Z4.00000 ( retract )

G00 X-15.94498 Y-10.92500 ( rapid move to begin. )
G01 Z-0.90000 F200.00000 ( plunge. )
G04 P0 ( dwell for no time -- G64 should not smooth over this point )
G01 F400.00000
G01 X-15.90502 Y-11.12589
G01 X-15.79123 Y-11.29622
G01 X-15.62090 Y-11.41004
G01 X-15.41998 Y-11.44999
G01 X12.34498 Y-11.44999
G01 X12.54590 Y-11.41004
G01 X12.71621 Y-11.29622
G01 X12.83002 Y-11.12589
G01 X12.86998 Y-10.92500
G01 X12.86998 Y14.07498
G01 X12.83002 Y14.27589
G01 X12.71621 Y14.44622
G01 X12.54590 Y14.56002
G01 X12.34498 Y14.60000
G01 X-15.41998 Y14.60000
G01 X-15.62090 Y14.56002
G01 X-15.79123 Y14.44622
G01 X-15.90502 Y14.27589
G01 X-15.94498 Y14.07498
G01 X-15.94498 Y-10.92500
G01 Z-1.80000 F200.00000 ( plunge. )
G04 P0 ( dwell for no time -- G64 should not smooth over this point )
G01 F400.00000
G01 X-15.90502 Y-11.12589
G01 X-15.79123 Y-11.29622
G01 X-15.62090 Y-11.41004
G01 X-15.41998 Y-11.44999
G01 X12.34498 Y-11.44999
G01 X12.54590 Y-11.41004
G01 X12.71621 Y-11.29622
G01 X12.83002 Y-11.12589
G01 X12.86998 Y-10.92500
G01 X12.86998 Y14.07498
G01 X12.83002 Y14.27589
G01 X12.71621 Y14.44622
G01 X12.54590 Y14.56002
G01 X12.34498 Y14.60000
G01 X-15.41998 Y14.60000
G01 X-15.62090 Y14.56002
G01 X-15.79123 Y14.44622
G01 X-15.90502 Y14.27589
G01 X-15.94498 Y14.07498
G01 X-15.94498 Y-10.92500

G04 P0 ( dwell for no time -- G64 should not smooth over this point )
G00 Z30.000 ( retract )

M5 ( Spindle off. )
G04 P12.000000
M9 ( Coolant off. )
M2 ( Program end. )

